X:82
T:T051- Paddy O'Snap
S:Riley's Flute Melodies, I (1814-16)
Q:1/4=120
L:1/8
M:9/8
K:D
D2d dcd fed|E2e efd cBA|D2d dcd fed|efd cBc d3||\
A2A ABG FGA|BGB cAc dfg|a2A ABG FGA|BGB cAc d3|]

